!!!OTL-incipit: WENN DIE HOFFNUNG NICHT WAER, SO LEBT ICH NICHT MEHR
!!!ARE: Europa, Mitteleuropa, Deutschland, Ulm
!!!SCT: Z0251
!!!TXL: @@DE
!!!YEM: Copyright 1995, estate of Helmut Schaffrath.
**kern	**text
*ICvox	*
*M3/4	*
*k[b-]	*
*F:	*
!LO:TX:a:t=Aus Ulm.	!
{8a	Wenn
8cc	die
=1	=1
4ff	Hoff-
4cc	-nung
4a	nicht
=2	=2
2f}	wär,
{4a	ſo
=3	=3
4b-	lebt
4g	ich
4cc	nicht
=4	=4
4f	mehr;
4r}	.
{8f	denn
8g	die
=5	=5
4a	Hoff-
4a	-nung
4b-/	al-
=6	=6
2cc}	-lein
{4cc	kann
=7	=7
4dd	lin-
8dd	-dern
8cc	.
4bn	die
=8	=8
4cc	Pein;
4r}	.
{8cc	und
8cc	wie
=9	=9
4a	ging
4f	es
4g	denn
=10	=10
2a}	hin,
{8g	und
8g	wie
=11	=11
4a	ging
4a	es
4cc	denn
=12	=12
2bn}	her,
{8f	und
8g	wie
=13	=13
4a	ging
4a	es
4b-X/	denn
=14	=14
2cc}	her,
{8a	wenn
8a	die
=15	=15
4b-/	Hoff-
4g	-nung
4e	nicht
=16	=16
2f}	wär.
==	==
!!!AGN: lyrisches Lied, Romanze
!!!ONB: ESAC (Essen Associative Code) Database: ZUCCAL
!!!AMT: simple triple
!!!AIN: vox
!!!EED: Helmut Schaffrath
!!!EEV: 1.0
!!!GTL: IV. Lyrische Lieder.
!!!URL-scan: https://www.digitale-sammlungen.de/de/view/bsb11160571?page=465
!!!ENC: Anna Maria Matuszewska
!!!EEV: 2025/01/30
*-	*-
